!!!!SEGMENT: pl-kozmzk--mzk-m-70_cwiklicz-boleslaw-jan--nie-caluj-mnie.krn
!!!cenid: 18xx:2955
!!!COM: Ćwiklicz, Bolesław Jan
!!!COM-rismid: pe41023611
!!!CDT: ~1800-~1899
!!!CNT: Polish
!!!OTL: Nie całuj mnie
!!!PDT:
!!!AGN: Secular
!!!SMS-siglum: PL-KOZmzk
!!!SMS-shelfmark: mzk/m/70
!!!SMS-shelfwork: W
!!!SMS-variant:
!!!SMS-altvar:
!!!NIFC-rismid: 1001083405
!!!URL-scan: https://repozytorium.nifc.pl/islandora/object/pl-kozmzk%3A12044/datastream/PDF/view
!!!ONB-nifc:
!!!OMD:Niezbyt prędko.
**kern	**kern	**dynam	**kern	**text	**dynam
*part2	*part2	*part2	*part1	*part1	*part1
*staff3	*staff2	*	*staff1	*staff1	*
*clefF4	*clefG2	*	*clefG2	*	*
*Iempty	*Iempty	*	*Iempty	*	*
*I"	*I"	*	*I"	*	*
*k[f#]	*k[f#]	*	*k[f#]	*	*
*G:	*G:	*	*G:	*	*
*M3/4	*M3/4	*	*M3/4	*	*
=1	=1	=1	=1	=1	=1
*^	*^	*	*	*	*
!!LO:TX:a:t=M.M.
!LO:TX:t=P:problem:"M.M." przed dokładnym metronomicznym oznaczeniu tempa	!	!	!	!	!	!	!
*v	*v	*	*	*	*	*	*
*	*v	*v	*	*	*	*
*MM92	*MM92	*	*MM92	*	*
*^	*^	*	*	*	*
!	!LO:TX:t=P:problem:błędne wyświetlanie łuku	!	!	!	!LO:TX:a:t=[quarter]=92	!	!
2G/	(>8GG\L	(4b/	2d\	p	2.r	.	.
.	8AA\J	.	.	.	.	.	.
.	4BB\)	4.dd/	.	.	.	.	.
4G (<4C\	4ryy	.	4e\	.	.	.	.
.	.	8cc/	.	.	.	.	.
*	*	*v	*v	*	*	*	*
=2	=2	=2	=2	=2	=2	=2
2G/	4BB\	2e 2c/)	.	2.r	.	.
.	4AA\)	.	.	.	.	.
4F#/	(>8D\L	(>4d/	<	.	.	.
.	8C\J	.	.	.	.	.
*v	*v	*	*	*	*	*
=3	=3	=3	=3	=3	=3
8GL 8BB\	4.g 4.d/	.	2.r	.	.
8C\	.	.	.	.	.
8BB\	.	.	.	.	.
8AA\	8aL 8f# 8d/	.	.	.	.
8GG\	8b 8g 8d/	.	.	.	.
8EE\J)	8ccJ 8g 8c/)	[	.	.	.
=4	=4	=4	=4	=4	=4
(16DD\LL	(>2ee 2cc 2g/	>	2.r	.	.
16GG\	.	.	.	.	.
16AA\	.	.	.	.	.
16C\J	.	.	.	.	.
16D\L	.	.	.	.	.
16G\	.	.	.	.	.
16A\	.	.	.	.	.
16c\JJ	.	.	.	.	.
4d\)	4dd 4a 4f#/)	]	.	.	.
=5	=5	=5	=5	=5	=5
!	!	!	!	!	!LO:DY:a
2.G 2.GG/	4r	p	4b/	Nie	mf
.	(4b 4g 4d'/	.	4.dd\	ca-	.
.	4cc 4g 4d'/)	.	.	.	.
.	.	.	8cc\	-łuj	.
!!LO:LB:g=original
=6	=6	=6	=6	=6	=6
(<2C/	4r	<	2e/	mnie !	.
.	(>4a 4e 4A'>/	.	.	.	.
4D\)	4a 4f# 4d'>/)	.	8r	.	.
.	.	.	8d/	Nie	.
=7	=7	=7	=7	=7	=7
(4G 4BB'\	(>4g 4d'>/	.	4.g/	pie-	.
4F# 4AA'\	4a 4d'>/	.	.	.	.
.	.	.	8a/	-rzchną	.
4G 4GG'\)	4b 4d'>/)	[	8b/L	pra-	.
.	.	.	8cc/J	-gnień	.
=8	=8	=8	=8	=8	=8
*^	*	*	*	*	*
(4G/	2C\	(>2cc 2e/	>	2ee\	ro-	.
8A/L	.	.	.	.	.	.
8A#X/J	.	.	.	.	.	.
4B: 4GG:\)	4ryy	4dd 4g/)	]]	4dd\	-je	.
*v	*v	*	*	*	*	*
=9	=9	=9	=9	=9	=9
*tremolo	*tremolo	*	*	*	*
!	!	!	!	!	!LO:DY:a
(32C\LLL	(32a/LLL	p	4a/	By	p
32A\	32e/	.	.	.	.
32C\	32a/	.	.	.	.
32A\	32e/	.	.	.	.
32C\	32a/	.	.	.	.
32A\	32e/	.	.	.	.
32C\	32a/	.	.	.	.
32A\	32e/	.	.	.	.
32C\	32a/	.	4.cc\	u-	.
32A\	32e/	.	.	.	.
32C\	32a/	.	.	.	.
32A\	32e/	<	.	.	.
32C\	32a/	.	.	.	.
32A\	32e/	.	.	.	.
32C\	32a/	.	.	.	.
32A\	32e/	.	.	.	.
32C\	32a/	.	.	.	.
32A\	32e/	.	.	.	.
32C\	32a/	.	.	.	.
32A\	32e/	.	.	.	.
32C\	32a/	.	8b/	-śpić	.
32A\	32e/	.	.	.	.
32C\	32a/	.	.	.	.
32A\JJJ)	32e/JJJ)	.	.	.	.
=10	=10	=10	=10	=10	=10
(32D\LLL	(32g/LLL	.	2d/	je,	.
32B\	32d/	.	.	.	.
32D\	32g/	.	.	.	.
32B\	32d/	.	.	.	.
32D\	32g/	.	.	.	.
32B\	32d/	.	.	.	.
32D\	32g/	.	.	.	.
32B\JJJ)	32d/JJJ)	.	.	.	.
(32C\LLL	(32f#/LLL	.	.	.	.
32A\	32d/	.	.	.	.
32C\	32f#/	.	.	.	.
32A\	32d/	.	.	.	.
32C\	32f#/	.	.	.	.
32A\	32d/	.	.	.	.
32C\	32f#/	.	.	.	.
32A\JJJ)	32d/JJJ)	.	.	.	.
(32BB\LLL	(32ddLLL 32g/	.	4g/	Tej	.
32G\	32d/	.	.	.	.
32BB\	32dd 32g/	.	.	.	.
32G\	32d/	.	.	.	.
32BB\	32dd 32g/	.	.	.	.
32G\	32d/	.	.	.	.
32BB\	32dd 32g/	.	.	.	.
32G\JJJ)	32d/JJJ)	.	.	.	.
=11	=11	=11	=11	=11	=11
(32AA\LLL	(32cc#X/LLL	.	4.f#/	mo-	.
32A\	32g/	.	.	.	.
32AA\	32cc#/	.	.	.	.
32A\	32g/	.	.	.	.
32AA\	32cc#/	.	.	.	.
32A\	32g/	.	.	.	.
32AA\	32cc#/	.	.	.	.
32A\	32g/	.	.	.	.
32AA\	32cc#/	.	.	.	.
32A\	32g/	.	.	.	.
32AA\	32cc#/	.	.	.	.
32A\	32g/	.	.	.	.
32AA\	32cc#/	.	8e/	-cy	.
32A\	32g/	.	.	.	.
32AA\	32cc#/	.	.	.	.
32A\JJJ)	32g/JJJ)	[	.	.	.
*	*Xtremolo	*	*	*	*
!	!LO:TX:t=P:problem:wertykalne marcato	!	!	!	!
(32AAA/LLL	4ee^^> 4cc# 4g/	>	8b/L	nie	.
32AA/	.	.	.	.	.
32AAA/	.	.	.	.	.
32AA/	.	.	.	.	.
32AAA/	.	.	8a/J	ma	.
32AA/	.	.	.	.	.
32AAA/	.	.	.	.	.
32AA/JJJ)	.	.	.	.	.
*Xtremolo	*	*	*	*	*
!!LO:PB:g=original
=12	=12	=12	=12	=12	=12
!LO:TX:t=P:problem:błędne wyświetlanie łuku	!	!	!	!	!
!LO:TX:t=P:problem:widełki crescenda zapisane pochyło w kierunku wznoszącym	!	!LO:HP:b=2	!	!	!
N(>16DD/LL	4dd 4a 4f#/	] <	2dd\	nie!	.
16AA/	.	.	.	.	.
16D/	.	.	.	.	.
16F#/JJ	.	.	.	.	.
16A\LL	8r	.	.	.	.
16d\JJ	.	.	.	.	.
8r	16f#/LL	.	.	.	.
.	16a/JJ	.	.	.	.
!	!LO:TX:b:t=leggiero	!	!	!	!
4r	8dd'>/LN)	.	4r	.	.
.	8ee'>/J	[	.	.	.
=13	=13	=13	=13	=13	=13
8r	8ff#'>/L	.	2.r	.	.
8b>\L	8gg 8dd'>/	.	.	.	.
8a>\	8ff# 8cc#X'>/	.	.	.	.
8g>\J	8eeJ 8b'>/	>	.	.	.
4e> 4A^<\	(8bbL 8gg 8cc#^>/	.	.	.	.
.	8aa/J	.	.	.	.
=14	=14	=14	=14	=14	=14
!LO:TX:t=P:problem:widełki crescenda zapisane pochyło w kierunku wznoszącym	!	!LO:HP:b=2	!	!	!
!!LO:TX:t=P:problem:błędne wyświetlanie łuku	!	!	!	!	!	!
N(>16D\LL	8ddd 8ff# 8dd\)	]] <	2.r	.	.
16A\	.	.	.	.	.
16d>\	8rdd	.	.	.	.
16f#>\JJ	.	.	.	.	.
16a>\LL	8rff	.	.	.	.
16dd>\JJ	.	.	.	.	.
8r	16ff#/LL	.	.	.	.
.	16aa/JJ	.	.	.	.
4r	8ddd'>/LN)	.	.	.	.
.	8eee'>/J	[	.	.	.
*clefG2	*	*	*	*	*
=15	=15	=15	=15	=15	=15
8r	8fff#/	.	2.r	.	.
*	*8va	*	*	*	*
8bb'\L	8gggL 8ddd'/	.	.	.	.
8aa'\	8fff# 8ccc#X'/	.	.	.	.
8gg'\J	8eeeJ 8bb'/	.	.	.	.
(4ee (4a^\	8bbbL 8ggg 8ccc#^>/	>	.	.	.
.	8aaa/J	.	.	.	.
!!LO:LB:g=original
=16	=16	=16	=16	=16	=16
8dd\))	8dddd 8fff# 8ddd\	]]	4r	.	.
*	*X8va	*	*	*	*
8r	8r	.	.	.	.
4r	4r	.	4r	.	.
4r	4r	.	4ff#\	Ta	p
=17	=17	=17	=17	=17	=17
*tremolo	*tremolo	*	*	*	*
!LO:TX:t=P:problem:błędne wyświetlanie łuku	!LO:TX:t=P:problem:błędne wyświetlanie łuku	!	!	!	!
(<(32b/LLL	((32dd/LLL	pp	2gg\	noc...	.
32a#/	32cc#/	.	.	.	.
32b/	32dd/	.	.	.	.
32a#/	32cc#/	.	.	.	.
32b/	32dd/	.	.	.	.
32a#/	32cc#/	.	.	.	.
32b/	32dd/	.	.	.	.
32a#/	32cc#/	.	.	.	.
32b/	32dd/	.	.	.	.
32a#/	32cc#/	.	.	.	.
32b/	32dd/	.	.	.	.
32a#/	32cc#/	.	.	.	.
32b/	32dd/	.	.	.	.
32a#/	32cc#/	.	.	.	.
32b/	32dd/	.	.	.	.
32a#/	32cc#/	.	.	.	.
32b/	32dd/	.	4ff#\	ten	.
32a#/	32cc#/	.	.	.	.
32b/	32dd/	.	.	.	.
32a#/	32cc#/	.	.	.	.
32b/	32dd/	.	.	.	.
32a#/	32cc#/	.	.	.	.
32b/	32dd/	.	.	.	.
32a#X/JJJ)	32cc#X/JJJ)	.	.	.	.
=18	=18	=18	=18	=18	=18
(32g/LLL	(32b/LLL	.	[4cc#X\	szał	.
32f#/	32a#/	.	.	.	.
32g/	32b/	.	.	.	.
32f#/	32a#/	.	.	.	.
32g/	32b/	.	.	.	.
32f#/	32a#/	.	.	.	.
32g/	32b/	.	.	.	.
32f#/	32a#/	.	.	.	.
32g/	32b/	.	4.cc#\]	.	.
32f#/	32a#/	.	.	.	.
32g/	32b/	.	.	.	.
32f#/	32a#/	.	.	.	.
32g/	32b/	.	.	.	.
32f#/	32a#/	.	.	.	.
32g/	32b/	.	.	.	.
32f#/	32a#/	.	.	.	.
32g/	32b/	.	.	.	.
32f#/	32a#/	.	.	.	.
32g/	32b/	.	.	.	.
32f#/	32a#/	.	.	.	.
32g/	32b/	.	8dd\	i	.
32f#/	32a#/	.	.	.	.
32g/	32b/	.	.	.	.
32f#/JJJ)	32a#X/JJJ)	.	.	.	.
*Xtremolo	*Xtremolo	*	*	*	*
=19	=19	=19	=19	=19	=19
16e/LL	16g/LL	.	4.ee\	te	.
16d/	16f#/	.	.	.	.
16c#X/	16e/	.	.	.	.
16B/JJ	16d/JJ	.	.	.	.
16A#X/LL	16c#X/LL	>	.	.	.
16B/	16d/	.	.	.	.
16A#/	16c#/	.	8ff#\L	pie-	.
16B/JJ	16d/JJ	.	.	.	.
16c#/LL	16e/LL	.	8aa\	-szczo-	.
16d/	16f#/	.	.	.	.
16c#/	16e/	.	8gg\J	-ty	.
16B/JJ	16d/JJ	]]	.	.	.
*clefF4	*	*	*	*	*
!!LO:LB:g=original
=20	=20	=20	=20	=20	=20
16A#X\LL	16c#X/LL	>	4ff#\	two-	.
16B\	16d/	.	.	.	.
16A#\	16c#/	.	.	.	.
16B\JJ	16d/JJ	.	.	.	.
16A#\LL	16c#/LL	.	2ee\	-je...	.
16B\	16d/	.	.	.	.
16A#\	16c#/	.	.	.	.
16An\JJ	16cn/JJ	.	.	.	.
16G#X\LL	8B/)	.	.	.	.
16A\	.	.	.	.	.
16G#\	8r	.	.	.	.
16Gn\JJ)	.	]]	.	.	.
=21	=21	=21	=21	=21	=21
*ped	*	*	*	*	*
*Xtuplet	*Xtuplet	*	*	*	*
!LO:TUP:problem::w rękopisie triola z dolnego systemu zapisana jest razem z następującą triolą z górnego systemu pod jedną klamrą łukową z numerem 6 jako sekstola:dotyczy t. 21-22	!	!	!	!	!LO:DY:a
24BB\LL	8r	mf	4dd\	Da-	f
24F#\	.	.	.	.	.
24B\JJ	.	.	.	.	.
8r	24d/LL	.	.	.	.
.	24f#/	.	.	.	.
*Xped	*	*	*	*	*
.	24b/JJ	.	.	.	.
*ped	*	*	*	*	*
24FF#\LL	8r	.	4cc#X\	-ły	.
24F#\	.	.	.	.	.
24A#X\JJ	.	.	.	.	.
8r	24e/LL	.	.	.	.
.	24f#/	.	.	.	.
*Xped	*	*	*	*	*
.	24a#X/JJ	.	.	.	.
*ped	*	*	*	*	*
24GG\LL	8r	.	4b\	mi	.
24D\	.	.	.	.	.
24B\JJ	.	.	.	.	.
8r	24d/LL	.	.	.	.
.	24g/	.	.	.	.
*Xped	*	*	*	*	*
.	24b/JJ	.	.	.	.
=22	=22	=22	=22	=22	=22
*ped	*	*	*	*	*
24FF#\LL	8r	.	(>4a/	ty-	.
24D\	.	.	.	.	.
24A\JJ	.	.	.	.	.
8r	24d/LL	.	.	.	.
.	24a/	.	.	.	.
*Xped	*	*	*	*	*
.	24dd/JJ	.	.	.	.
*ped	*	*	*	*	*
24GG\LL	8r	.	4b/)	.	.
24G\	.	.	.	.	.
24B\JJ	.	.	.	.	.
8r	24d/LL	.	.	.	.
.	24g/	.	.	.	.
*Xped	*	*	*	*	*
.	24b/JJ	.	.	.	.
*ped	*	*	*	*	*
24BB\LL	8r	.	4f#/	-lko	.
24F#\	.	.	.	.	.
24B\JJ	.	.	.	.	.
8r	24d#X/LL	.	.	.	.
.	24f#/	.	.	.	.
*Xped	*	*	*	*	*
.	24b/JJ	.	.	.	.
!!LO:LB:g=original
=23	=23	=23	=23	=23	=23
*ped	*	*	*	*	*
N(32BBLLL 32EE^<\	8r	.	2g/	ból!	.
32E\	.	.	.	.	.
32G\	.	.	.	.	.
32B\JJJ	.	>	.	.	.
32e\	32r	.	.	.	.
16.r	32g/LLL	.	.	.	.
.	32b/	.	.	.	.
.	32ee/JJJ	.	.	.	.
8r	32gg\LLL	.	.	.	.
.	32bb\	.	.	.	.
.	32eee\	.	.	.	.
.	32ggg\JJJ	.	.	.	.
*Xped	*	*	*	*	*
8r	8bbb\N)	.	.	.	.
!	!	!	!	!	!LO:DY:a
4r	4r	]	4gg\	Nie	f
=24	=24	=24	=24	=24	=24
4r	4r	.	4.ff#\	ca-	.
(<4A 4AA'<\	(>4cc#X 4g'>/	>	.	.	.
.	.	.	8cc#X\	-łuj	.
4A 4D'<\)	4dd 4f#'>/)	]]	4dd\	mnie!	.
=25	=25	=25	=25	=25	=25
!	!LO:TX:a:t=una corda	!	!	!	!
2.r	2g 2B-X/	ppp <	2.r	.	.
.	[4f# [4A/	[	.	.	.
=26	=26	=26	=26	=26	=26
(4AA/	8f#]L 8A/]	.	2.r	.	.
.	8c#XJ 8G/	>	.	.	.
2AA 2DD/)	2d 2F#/	]]	.	.	.
!!LO:PB:g=original
=27	=27	=27	=27	=27	=27
*	*^	*	*	*	*
!	!LO:TX:a:t=tre corde	!	!	!	!	!LO:DY:a
2.G 2.GG\	8r	2ryy	p	4b/	Nie	mf
.	(>8d/L	.	.	.	.	.
.	8b 8g/	.	.	4.dd/	ca-	.
.	8d/	.	.	.	.	.
.	8e/	4e~\	.	.	.	.
.	8ccJ 8g/)	.	.	8cc/	-łuj	.
*	*v	*v	*	*	*	*
=28	=28	=28	=28	=28	=28
2C/	8r	.	2e/	mnie!	.
.	8A/L	.	.	.	.
.	8a 8e/	.	.	.	.
.	8A/J	<	.	.	.
4D\	8r	.	8r	.	.
.	8a 8f# 8d/	.	8d/	Choć	.
=29	=29	=29	=29	=29	=29
(4G 4BB'\	8r	.	4.g/	u-	.
.	8g 8d/	.	.	.	.
4F# 4AA'\	8r	.	.	.	.
.	8a 8d/	.	8a/L	-sta	.
4G 4GG'\)	4b 4d/	.	8b/	twe	.
.	.	[	8cc/J	tak	.
=30	=30	=30	=30	=30	=30
*^	*	*	*	*	*
*	*	*tremolo	*	*	*	*
!	!	!LO:TX:t=P:problem:jeden z dwóch łuków się nie wyświetla	!	!	!	!
(4G/	2C\	(>32ccLLL (<32g/	>	2ee\	pło-	.
.	.	32e/	.	.	.	.
.	.	32cc 32g/	.	.	.	.
.	.	32e/	.	.	.	.
.	.	32cc 32g/	.	.	.	.
.	.	32e/	.	.	.	.
.	.	32cc 32g/	.	.	.	.
.	.	32e/	.	.	.	.
8A/L	.	32cc 32g/	.	.	.	.
.	.	32e/	.	.	.	.
.	.	32cc 32g/	.	.	.	.
.	.	32e/	.	.	.	.
8A#X/J	.	32cc 32g/	.	.	.	.
.	.	32e/	.	.	.	.
.	.	32cc 32g/	.	.	.	.
.	.	32e/JJJ)>)<	.	.	.	.
!	!	!LO:TX:t=P:problem:jeden z dwóch łuków się nie wyświetla	!	!	!	!
4B: 4GG:\)	4ryy	(>32ddLLL (<32g/	.	4dd\	-ną,	.
.	.	32d/	.	.	.	.
.	.	32dd 32g/	.	.	.	.
.	.	32d/	.	.	.	.
.	.	32dd 32g/	.	.	.	.
.	.	32d/	.	.	.	.
.	.	32dd 32g/	.	.	.	.
.	.	32d/JJJ)>)<	.	.	.	.
*v	*v	*	*	*	*	*
=31	=31	=31	=31	=31	=31
*tremolo	*	*	*	*	*
(32C\LLL	(32a/LLL	]] p	4a/	Nie	.
32A\	32e/	.	.	.	.
32C\	32a/	.	.	.	.
32A\	32e/	.	.	.	.
32C\	32a/	.	.	.	.
32A\	32e/	.	.	.	.
32C\	32a/	.	.	.	.
32A\	32e/	.	.	.	.
32C\	32a/	.	4.cc/	wzbu-	.
32A\	32e/	.	.	.	.
32C\	32a/	.	.	.	.
32A\	32e/	.	.	.	.
32C\	32a/	.	.	.	.
32A\	32e/	.	.	.	.
32C\	32a/	.	.	.	.
32A\	32e/	.	.	.	.
32C\	32a/	.	.	.	.
32A\	32e/	.	.	.	.
32C\	32a/	.	.	.	.
32A\	32e/	.	.	.	.
32C\	32a/	.	8b/	-dzisz	.
32A\	32e/	.	.	.	.
32C\	32a/	.	.	.	.
32A\JJJ)	32e/JJJ)	<	.	.	.
=32	=32	=32	=32	=32	=32
(32D\LLL	32g/LLL	.	2d/	żądz...	.
32B\	32d/	.	.	.	.
32D\	32g/	.	.	.	.
32B\	32d/	.	.	.	.
32D\	32g/	.	.	.	.
32B\	32d/	.	.	.	.
32D\	32g/	.	.	.	.
32B\JJJ)	32d/JJJ	.	.	.	.
(32C\LLL	32f#/LLL	.	.	.	.
32A\	32d/	.	.	.	.
32C\	32f#/	.	.	.	.
32A\	32d/	.	.	.	.
32C\	32f#/	.	.	.	.
32A\	32d/	.	.	.	.
32C\	32f#/	.	.	.	.
32A\JJJ)	32d/JJJ	.	.	.	.
(32BB\LLL	32ddLLL 32g/	.	4g/	U-	.
32G\	32d/	.	.	.	.
32BB\	32dd 32g/	.	.	.	.
32G\	32d/	.	.	.	.
32BB\	32dd 32g/	.	.	.	.
32G\	32d/	.	.	.	.
32BB\	32dd 32g/	.	.	.	.
32G\JJJ)	32d/JJJ	.	.	.	.
=33	=33	=33	=33	=33	=33
(32AA\LLL	32cc#X/LLL	.	4.f#/	-po-	.
32A\	32g/	.	.	.	.
32AA\	32cc#/	.	.	.	.
32A\	32g/	.	.	.	.
32AA\	32cc#/	.	.	.	.
32A\	32g/	.	.	.	.
32AA\	32cc#/	.	.	.	.
32A\	32g/	.	.	.	.
32AA\	32cc#/	.	.	.	.
32A\	32g/	.	.	.	.
32AA\	32cc#/	.	.	.	.
32A\	32g/	.	.	.	.
32AA\	32cc#/	.	8e/	-jeń	.
32A\	32g/	.	.	.	.
32AA\	32cc#/	.	.	.	.
32A\JJJ)	32g/JJJ	[ >	.	.	.
*	*Xtremolo	*	*	*	*
!	!LO:TX:t=P:problem:wertykalne marcato	!	!	!	!
(32AAA/LLL	4ee^^> 4cc# 4g/	.	8b/L	nie	.
32AA/	.	.	.	.	.
32AAA/	.	.	.	.	.
32AA/	.	.	.	.	.
32AAA/	.	.	8a/J	dasz	.
32AA/	.	.	.	.	.
32AAA/	.	.	.	.	.
32AA/JJJ)	.	.	.	.	.
*Xtremolo	*	*	*	*	*
!!LO:PB:g=original
=34	=34	=34	=34	=34	=34
!LO:TX:t=P:problem:błędne wyświetlanie łuku	!	!	!	!	!
!LO:TX:t=P:problem:widełki crescenda zapisane pochyło w kierunku wznoszącym	!	!	!	!	!
!	!	!LO:HP:b=2	!	!	!
N(>16DD/LL	4dd 4a 4f#/	]] <	2dd\	nie!	.
16AA/	.	.	.	.	.
16D/	.	.	.	.	.
16F#/JJ	.	.	.	.	.
16A/LL	8r	.	.	.	.
16d/JJ	.	.	.	.	.
!	!LO:TX:b:i:t=leggiero	!	!	!	!
8r	16f#\LL	.	.	.	.
.	16a\JJ	.	.	.	.
4r	8dd'\LN)	.	4r	.	.
.	8ee'\J	[[	.	.	.
!!LO:PB:g=original
=35	=35	=35	=35	=35	=35
8r	8ff#'/L	.	2.r	.	.
8b>\L	8gg 8dd'/	.	.	.	.
8a>\	8ff# 8cc#X'/	.	.	.	.
8g>\J	8eeJ 8b'/	.	.	.	.
4e> 4A^<\	(8bbL 8gg 8cc#^>/	>	.	.	.
.	8aa/J	.	.	.	.
=36	=36	=36	=36	=36	=36
!LO:TX:t=P:problem:błędne wyświetlanie łuku	!	!	!	!	!
!LO:TX:t=P:problem:widełki crescenda zapisane pochyło w kierunku wznoszącym	!	!	!	!	!
!	!	!LO:HP:b=2	!	!	!
N(16D\LL	8ddd 8ff# 8dd\)	]] <	2.r	.	.
16A\	.	.	.	.	.
16d\	8ryy	.	.	.	.
16f#\JJ	.	.	.	.	.
16a>\LL	8ryy	.	.	.	.
16dd>\JJ	.	.	.	.	.
8r	16ff#/LL	.	.	.	.
.	16aa/JJ	.	.	.	.
*	*8va	*	*	*	*
4r	8ddd'>/LN)	[	.	.	.
.	8eee'>/J	.	.	.	.
*clefG2	*	*	*	*	*
=37	=37	=37	=37	=37	=37
8r	8fff#'>/L	.	2.r	.	.
8bb'\L	8aaa 8ddd'>/	.	.	.	.
8aa'\	8fff# 8ccc#X'>/	.	.	.	.
8gg'\J	8eeeJ 8bb'>/	.	.	.	.
(4ee (4a^\	(8bbbL 8ggg 8ccc#^>/	>	.	.	.
.	8aaa/J	.	.	.	.
=38	=38	=38	=38	=38	=38
8dd\))	8dddd 8fff# 8ddd\)	]]	4r	.	.
*	*X8va	*	*	*	*
8r	8r	.	.	.	.
4r	4r	.	4r	.	.
!	!	!	!	!	!LO:DY:a
4r	4r	.	4ff#\	I	p
=39	=39	=39	=39	=39	=39
*tremolo	*tremolo	*	*	*	*
!	!LO:TX:t=P:problem:błędne wyświetlanie łuku	!	!	!	!
(<32b/LLL	((32dd\LLL	pp	2gg\	w sza-	.
32a#/	32cc#\	.	.	.	.
32b/	32dd\	.	.	.	.
32a#/	32cc#\	.	.	.	.
32b/	32dd\	.	.	.	.
32a#/	32cc#\	.	.	.	.
32b/	32dd\	.	.	.	.
32a#/	32cc#\	.	.	.	.
32b/	32dd\	.	.	.	.
32a#/	32cc#\	.	.	.	.
32b/	32dd\	.	.	.	.
32a#/	32cc#\	.	.	.	.
32b/	32dd\	.	.	.	.
32a#/	32cc#\	.	.	.	.
32b/	32dd\	.	.	.	.
32a#/	32cc#\	.	.	.	.
32b/	32dd\	.	4ff#\	-le	.
32a#/	32cc#\	.	.	.	.
32b/	32dd\	.	.	.	.
32a#/	32cc#\	.	.	.	.
32b/	32dd\	.	.	.	.
32a#/	32cc#\	.	.	.	.
32b/	32dd\	.	.	.	.
32a#X/JJJ	32cc#X\JJJ)	.	.	.	.
!!LO:LB:g=original
=40	=40	=40	=40	=40	=40
(32g/LLL	(32b/LLL	.	8ee\L	pie-	.
32f#/	32a#/	.	.	.	.
32g/	32b/	.	.	.	.
32f#/	32a#/	.	.	.	.
32g/	32b/	.	8dd\J	-szczot	.
32f#/	32a#/	.	.	.	.
32g/	32b/	.	.	.	.
32f#/	32a#/	.	.	.	.
32g/	32b/	.	4.cc#X\	twych	.
32f#/	32a#/	.	.	.	.
32g/	32b/	.	.	.	.
32f#/	32a#/	.	.	.	.
32g/	32b/	.	.	.	.
32f#/	32a#/	.	.	.	.
32g/	32b/	.	.	.	.
32f#/	32a#/	.	.	.	.
32g/	32b/	.	.	.	.
32f#/	32a#/	.	.	.	.
32g/	32b/	.	.	.	.
32f#/	32a#/	.	.	.	.
32g/	32b/	.	8dd\	Wspo-	.
32f#/	32a#/	.	.	.	.
32g/	32b/	.	.	.	.
32f#/JJJ)	32a#X/JJJ)	.	.	.	.
*Xtremolo	*Xtremolo	*	*	*	*
=41	=41	=41	=41	=41	=41
16e/LL	16g/LL	.	4.ee\	-mnie-	.
16d/	16f#/	.	.	.	.
16c#X/	16e/	.	.	.	.
16B/JJ	16d/JJ	.	.	.	.
16A#X/LL	16c#X/LL	.	.	.	.
16B/	16d/	.	.	.	.
16A#/	16c#/	.	8ff#\L	-nia	.
16B/JJ	16d/JJ	.	.	.	.
16c#/LL	16e/LL	>	8aa\	nie	.
16d/	16f#/	.	.	.	.
16c#/	16e/	.	8gg\J	u-	.
16B/JJ	16d/JJ	.	.	.	.
*clefF4	*	*	*	*	*
=42	=42	=42	=42	=42	=42
16A#X\LL	16c#X/LL	.	4ff#\	-to-	.
16B\	16d/	.	.	.	.
16A#\	16c#/	.	.	.	.
16B\JJ	16d/JJ	.	.	.	.
16A#\LL	16c#/LL	.	2ee\	-ną	.
16B\	16d/	.	.	.	.
16A#\	16c#/	.	.	.	.
16An\JJ	16cn/JJ	.	.	.	.
16G#X\LL	8B/)	.	.	.	.
16A\	.	.	.	.	.
16G#\	8r	.	.	.	.
16Gn\JJ)	.	]]	.	.	.
=43	=43	=43	=43	=43	=43
*ped	*	*	*	*	*
!LO:TUP:problem::w rękopisie triola z dolnego systemu zapisana jest razem z następującą triolą z górnego systemu pod jedną klamrą łukową z numerem 6 jako sekstola:dotyczy t. 43-44	!	!	!	!	!LO:DY:a
24BB\LL	8r	mf	4dd\	tych	f
24F#\	.	.	.	.	.
24B\JJ	.	.	.	.	.
8r	24d/LL	.	.	.	.
.	24f#/	.	.	.	.
*Xped	*	*	*	*	*
.	24b/JJ	.	.	.	.
*ped	*	*	*	*	*
24FF#\LL	8r	.	4cc#X\	in-	.
24F#\	.	.	.	.	.
24A#X\JJ	.	.	.	.	.
8r	24e/LL	.	.	.	.
.	24f#/	.	.	.	.
*Xped	*	*	*	*	*
.	24a#X/JJ	.	.	.	.
*ped	*	*	*	*	*
24GG\LL	8r	.	4b\	-nych,	.
24D\	.	.	.	.	.
24B\JJ	.	.	.	.	.
8r	24d/LL	.	.	.	.
.	24g/	.	.	.	.
*Xped	*	*	*	*	*
.	24b/JJ	.	.	.	.
!!LO:LB:g=original
=44	=44	=44	=44	=44	=44
*ped	*	*	*	*	*
24FF#\LL	8r	.	(>4a/	dro-	.
24D\	.	.	.	.	.
24A\JJ	.	.	.	.	.
8r	24d/LL	.	.	.	.
.	24a/	.	.	.	.
*Xped	*	*	*	*	*
.	24dd/JJ	.	.	.	.
*ped	*	*	*	*	*
24GG\LL	8r	.	4b/)	.	.
24D\	.	.	.	.	.
24B\JJ	.	.	.	.	.
8r	24d/LL	.	.	.	.
.	24g/	.	.	.	.
*Xped	*	*	*	*	*
.	24dd/JJ	.	.	.	.
*ped	*	*	*	*	*
24CnLL 24CCn\	8r	.	4f#/	-gich	.
24F#\	.	.	.	.	.
24A\JJ	.	.	.	.	.
8r	24d/LL	.	.	.	.
.	24a/	.	.	.	.
*Xped	*	*	*	*	*
.	24dd/JJ	.	.	.	.
=45	=45	=45	=45	=45	=45
*ped	*	*	*	*	*
N(32BBLLL 32BBB\	4ryy	>	2g/	ust!....	.
32D\	.	.	.	.	.
32G\	.	.	.	.	.
32B\JJ	.	.	.	.	.
32d>\LL	.	.	.	.	.
32g>\	.	.	.	.	.
32b>\	.	.	.	.	.
32dd>\JJJ	.	.	.	.	.
4ryy	32gg\LLL	.	.	.	.
.	32bb\	.	.	.	.
.	32ddd\	.	.	.	.
.	32ggg\JJ	.	.	.	.
*Xped	*	*	*	*	*
.	8bbb\JN)	]]	.	.	.
4r	4r	.	4r	.	.
=46	=46	=46	=46	=46	=46
!	!LO:TX:a:t=una corda ad fine.	!	!	!	!LO:DY:a
2G 2C\	2cc 2e-X/	pp	2cc/	Nie	p
4r	4r	.	[>4b/	ca-	.
=47	=47	=47	=47	=47	=47
[4D'<\	(>4f# 4c'>/	>	8b/L]	.	.
.	.	.	8f#/J	-łuj	.
2D] 2GG'<\	2g) 2B'>/	]]	2g/	mnie!	.
==	==	==	==	==	==
*-	*-	*-	*-	*-	*-
!!!system-decoration: s1[(s2,s3)]
!!!ENC:Anastazja Marusiak
!!!END:2021-08-13
!!!ENC: Kamil Watkowski
!!!END: 2021-09-09
!!!RDF**kern: > = above
!!!RDF**kern: < = below
!!!RDF**kern: N = link
